packages/ffe-icons/icons/open/300/md/dataset.svg

<svg xmlns="http://www.w3.org/2000/svg" height="24" viewBox="0 -960 960 960" width="24"><path d="M326.154-290.001h67.692q15.461 0 25.807-10.346 10.346-10.346 10.346-25.807v-67.692q0-15.461-10.346-25.807-10.346-10.346-25.807-10.346h-67.692q-15.461 0-25.807 10.346-10.346 10.346-10.346 25.807v67.692q0 15.461 10.346 25.807 10.346 10.346 25.807 10.346Zm240 0h67.692q15.461 0 25.807-10.346 10.346-10.346 10.346-25.807v-67.692q0-15.461-10.346-25.807-10.346-10.346-25.807-10.346h-67.692q-15.461 0-25.807 10.346-10.346 10.346-10.346 25.807v67.692q0 15.461 10.346 25.807 10.346 10.346 25.807 10.346Zm-240-240h67.692q15.461 0 25.807-10.346 10.346-10.346 10.346-25.807v-67.692q0-15.461-10.346-25.807-10.346-10.346-25.807-10.346h-67.692q-15.461 0-25.807 10.346-10.346 10.346-10.346 25.807v67.692q0 15.461 10.346 25.807 10.346 10.346 25.807 10.346Zm240 0h67.692q15.461 0 25.807-10.346 10.346-10.346 10.346-25.807v-67.692q0-15.461-10.346-25.807-10.346-10.346-25.807-10.346h-67.692q-15.461 0-25.807 10.346-10.346 10.346-10.346 25.807v67.692q0 15.461 10.346 25.807 10.346 10.346 25.807 10.346Zm-353.845 390q-30.308 0-51.308-21t-21-51.308v-535.382q0-30.308 21-51.308t51.308-21h535.382q30.308 0 51.308 21t21 51.308v535.382q0 30.308-21 51.308t-51.308 21H212.309Zm0-59.999h535.382q4.616 0 8.463-3.846 3.846-3.847 3.846-8.463v-535.382q0-4.616-3.846-8.463-3.847-3.846-8.463-3.846H212.309q-4.616 0-8.463 3.846-3.846 3.847-3.846 8.463v535.382q0 4.616 3.846 8.463 3.847 3.846 8.463 3.846ZM200-760V-200-760Z"/></svg>

<svg xmlns="http://www.w3.org/2000/svg" height="24" viewBox="0 -960 960 960" width="24"><path d="M326.15-290h67.7q15.46 0 25.8-10.35Q430-310.69 430-326.15v-67.7q0-15.46-10.35-25.8Q409.31-430 393.85-430h-67.7q-15.46 0-25.8 10.35Q290-409.31 290-393.85v67.7q0 15.46 10.35 25.8Q310.69-290 326.15-290Zm240 0h67.7q15.46 0 25.8-10.35Q670-310.69 670-326.15v-67.7q0-15.46-10.35-25.8Q649.31-430 633.85-430h-67.7q-15.46 0-25.8 10.35Q530-409.31 530-393.85v67.7q0 15.46 10.35 25.8Q550.69-290 566.15-290Zm-240-240h67.7q15.46 0 25.8-10.35Q430-550.69 430-566.15v-67.7q0-15.46-10.35-25.8Q409.31-670 393.85-670h-67.7q-15.46 0-25.8 10.35Q290-649.31 290-633.85v67.7q0 15.46 10.35 25.8Q310.69-530 326.15-530Zm240 0h67.7q15.46 0 25.8-10.35Q670-550.69 670-566.15v-67.7q0-15.46-10.35-25.8Q649.31-670 633.85-670h-67.7q-15.46 0-25.8 10.35Q530-649.31 530-633.85v67.7q0 15.46 10.35 25.8Q550.69-530 566.15-530ZM212.31-140Q182-140 161-161q-21-21-21-51.31v-535.38Q140-778 161-799q21-21 51.31-21h535.38Q778-820 799-799q21 21 21 51.31v535.38Q820-182 799-161q-21 21-51.31 21H212.31Zm0-60h535.38q4.62 0 8.46-3.85 3.85-3.84 3.85-8.46v-535.38q0-4.62-3.85-8.46-3.84-3.85-8.46-3.85H212.31q-4.62 0-8.46 3.85-3.85 3.84-3.85 8.46v535.38q0 4.62 3.85 8.46 3.84 3.85 8.46 3.85ZM200-760v560-560Z"/></svg>
